!!!OTL: UND UNSER LIEBEN FRAUEN
!!!ARE: Europa, Mitteleuropa, Deutschland
!!!SCT: E2050
!!!YEM: Copyright 1995, estate of Helmut Schaffrath.
**kern
*ICvox
*Ivox
*M4/4
*k[]
*a:
{4ccn
=1
4ccn
4dd
4ccn
4b
=2
2a
4gn}
{4gn
=3
4ccn
4ccn
4dd
4ffn
=4
2ee
4r}
{4dd
=5
4ee
4ee
4ggn
4ffn
=6
4ee
4ggn
4ffn}
{4ee
=7
4dd
4ccn
4ee
4ccn
=8
4a
4b
2ccn}
=9
{2gn
4a
4a
=10
1b
=11
1a}
==
!!!AGN: geistlich, Marien - Lied, Legende
!!!ONB: ESAC (Essen Associative Code) Database: ERK3
!!!AMT: simple quadruple
!!!AIN: vox
!!!EED: Helmut Schaffrath
!!!EEV: 1.0
*-
